icons/svg/office/logistics.svg

<?xml version="1.0" encoding="UTF-8" standalone="no"?>
<!-- Created with Inkscape (http://www.inkscape.org/) -->

<svg
   xmlns:dc="http://purl.org/dc/elements/1.1/"
   xmlns:cc="http://creativecommons.org/ns#"
   xmlns:rdf="http://www.w3.org/1999/02/22-rdf-syntax-ns#"
   xmlns:svg="http://www.w3.org/2000/svg"
   xmlns="http://www.w3.org/2000/svg"
   xmlns:sodipodi="http://sodipodi.sourceforge.net/DTD/sodipodi-0.dtd"
   xmlns:inkscape="http://www.inkscape.org/namespaces/inkscape"
   version="1.0"
   width="580"
   height="580"
   id="svg2"
   sodipodi:version="0.32"
   inkscape:version="0.91 r"
   sodipodi:docname="logistics.svg"
   inkscape:output_extension="org.inkscape.output.svg.inkscape">
  <metadata
     id="metadata10">
    <rdf:RDF>
      <cc:Work
         rdf:about="">
        <dc:format>image/svg+xml</dc:format>
        <dc:type
           rdf:resource="http://purl.org/dc/dcmitype/StillImage" />
        <cc:license
           rdf:resource="http://web.resource.org/cc/PublicDomain" />
        <dc:language>en</dc:language>
        <dc:title></dc:title>
      </cc:Work>
    </rdf:RDF>
  </metadata>
  <sodipodi:namedview
     inkscape:window-height="1004"
     inkscape:window-width="1920"
     inkscape:pageshadow="2"
     inkscape:pageopacity="0.0"
     guidetolerance="10.0"
     gridtolerance="10.0"
     objecttolerance="10.0"
     borderopacity="1.0"
     bordercolor="#666666"
     pagecolor="#ffffff"
     id="base"
     showgrid="false"
     inkscape:zoom="0.5"
     inkscape:cx="487.65538"
     inkscape:cy="479.08248"
     inkscape:window-x="1680"
     inkscape:window-y="0"
     inkscape:current-layer="svg2"
     inkscape:window-maximized="1" />
  <defs
     id="defs4">
    <inkscape:perspective
       sodipodi:type="inkscape:persp3d"
       inkscape:vp_x="0 : 290 : 1"
       inkscape:vp_y="0 : 1000 : 0"
       inkscape:vp_z="580 : 290 : 1"
       inkscape:persp3d-origin="290 : 193.33333 : 1"
       id="perspective12" />
  </defs>
  <g
     id="g1327">
    <path
       d="M 66.275,1.768 C 24.94,1.768 1.704,23.139 1.704,66.804 L 1.704,516.927 C 1.704,557.771 22.598,579.156 63.896,579.156 L 515.92,579.156 C 557.227,579.156 578.149,558.84 578.149,516.927 L 578.149,66.804 C 578.149,24.203 557.227,1.768 514.627,1.768 C 514.624,1.768 66.133,1.625 66.275,1.768 z"
       style="fill:#111111;stroke:#eeeeee;stroke-width:3.40799999"
       id="path1329" />
  </g>
  <path
     inkscape:connector-curvature="0"
     style="color:#000000;clip-rule:nonzero;display:inline;overflow:visible;visibility:visible;opacity:1;isolation:auto;mix-blend-mode:normal;color-interpolation:sRGB;color-interpolation-filters:linearRGB;solid-color:#000000;solid-opacity:1;fill:#ffffff;fill-opacity:1;fill-rule:nonzero;stroke:none;stroke-width:25;stroke-linecap:round;stroke-linejoin:round;stroke-miterlimit:4;stroke-dasharray:none;stroke-dashoffset:0;stroke-opacity:1;marker:none;color-rendering:auto;image-rendering:auto;shape-rendering:auto;text-rendering:auto;enable-background:accumulate"
     d="m 143.29087,308.48637 c -15.16319,0 -28.17493,9.21233 -33.74414,22.34765 l -2.89258,35.31446 0,38.75586 c 0,4.71422 0.89771,9.21518 2.51954,13.35546 l -79.132816,0 0,26.78907 0,10.71679 0,92.875 24.779038,0 0,-92.875 254.074738,0 0,92.875 24.77513,0 0,-92.875 0.002,0 0,-37.50586 -79.13281,0 c 1.62182,-4.14028 2.51953,-8.64126 2.51953,-13.35546 l 0,-38.75391 -2.89258,-35.31836 c -5.5692,-13.13175 -18.58094,-22.3457 -33.74414,-22.3457 l -77.13086,0 z m -7.71289,49.17382 8.67774,0 0,60.59961 -8.67774,0 z m 83.87891,0 8.67773,0 0,60.59961 -8.67773,0 z"
     id="path4178"
     sodipodi:nodetypes="sccsccccccccccccccsccscscccccccccc" />
  <path
     inkscape:connector-curvature="0"
     style="color:#000000;clip-rule:nonzero;display:inline;overflow:visible;visibility:visible;opacity:1;isolation:auto;mix-blend-mode:normal;color-interpolation:sRGB;color-interpolation-filters:linearRGB;solid-color:#000000;solid-opacity:1;fill:#ffffff;fill-opacity:1;fill-rule:nonzero;stroke:none;stroke-width:25;stroke-linecap:round;stroke-linejoin:round;stroke-miterlimit:4;stroke-dasharray:none;stroke-dashoffset:0;stroke-opacity:1;marker:none;color-rendering:auto;image-rendering:auto;shape-rendering:auto;text-rendering:auto;enable-background:accumulate"
     d="m 181.85728,203.24223 c -24.76076,0 -44.83397,20.07127 -44.83399,44.83203 0,24.76075 20.07323,44.83203 44.83399,44.83203 24.76076,0 44.83203,-20.07128 44.83203,-44.83203 0,-24.76076 -20.07127,-44.83203 -44.83203,-44.83203 z"
     id="path4176" />
  <g
     id="g15"
     transform="matrix(1.1531363,0,0,1.1531363,-70.334728,-34.909168)">
    <path
       style="fill:#ffffff"
       inkscape:connector-curvature="0"
       id="path17"
       d="m 524.806,66.004 -144.376,0 c -4.624,0 -8.37,3.748 -8.37,8.37 l 0,107.411 c 0,4.624 3.746,8.37 8.37,8.37 l 144.376,0 c 4.626,0 8.369,-3.746 8.369,-8.37 l 0,-107.411 c 0,-4.622 -3.743,-8.37 -8.369,-8.37 z" />
    <circle
       style="fill:#ffffff"
       id="circle19"
       r="23.365"
       cy="222.58701"
       cx="334.048" />
    <path
       style="fill:#ffffff"
       inkscape:connector-curvature="0"
       id="path21"
       d="m 500.683,199.222 c -12.903,0 -23.366,10.462 -23.366,23.366 0,12.903 10.463,23.365 23.366,23.365 12.909,0 23.365,-10.462 23.365,-23.365 0,-12.904 -10.456,-23.366 -23.365,-23.366 z" />
    <polygon
       style="fill:#ffffff"
       id="polygon23"
       points="458.778,196.432 364.854,196.432 374.152,215.032 469.008,215.032 " />
    <path
       style="fill:#ffffff"
       inkscape:connector-curvature="0"
       id="path25"
       d="m 364.854,176.206 0,-62.076 c 0,-11.857 -9.882,-10.113 -9.882,-10.113 0,0 -24.063,0 -30.6,0 -6.532,0 -10.553,5.581 -10.553,5.581 0,0 -19.46,33.723 -27.088,46.616 -1.325,2.242 -2.901,6.495 -2.901,10.143 0,9.108 0,28.447 0,42.63 0,19.181 17.785,13.602 17.785,13.602 0,-0.807 0,-4.058 0,-15.345 0,-18.832 21.971,-17.088 21.971,-17.088 l 29.991,0 c 12.902,-0.001 11.277,-13.95 11.277,-13.95 z" />
  </g>
</svg>

<svg width="580" height="580" viewBox="0 0 580 580" fill="none" xmlns="http://www.w3.org/2000/svg">
<g clip-path="url(#clip0)">
<path d="M66.275 1.7679C24.94 1.7679 1.704 23.1389 1.704 66.8039V516.927C1.704 557.771 22.598 579.156 63.896 579.156H515.92C557.227 579.156 578.149 558.84 578.149 516.927V66.8039C578.149 24.2029 557.227 1.7679 514.627 1.7679C514.624 1.7679 66.133 1.6249 66.275 1.7679Z" fill="#111111" stroke="#EEEEEE" stroke-width="3.408"/>
<path d="M143.291 308.486C128.128 308.486 115.116 317.699 109.547 330.834L106.654 366.148V404.904C106.654 409.619 107.552 414.119 109.174 418.26H30.0409V445.049V455.766V548.641H54.8199V455.766H308.895V548.641H333.67V455.766H333.672V418.26H254.539C256.161 414.119 257.058 409.618 257.058 404.904V366.15L254.166 330.832C248.597 317.7 235.585 308.486 220.422 308.486H143.291H143.291ZM135.578 357.66H144.256V418.26H135.578V357.66ZM219.457 357.66H228.135V418.26H219.457V357.66Z" fill="white"/>
<path d="M181.857 203.242C157.097 203.242 137.023 223.313 137.023 248.074C137.023 272.835 157.097 292.906 181.857 292.906C206.618 292.906 226.689 272.835 226.689 248.074C226.689 223.313 206.618 203.242 181.857 203.242Z" fill="white"/>
<path d="M534.838 41.2024H368.353C363.021 41.2024 358.701 45.5244 358.701 50.8541V174.714C358.701 180.046 363.021 184.365 368.353 184.365H534.838C540.173 184.365 544.489 180.046 544.489 174.714V50.8541C544.489 45.5244 540.173 41.2024 534.838 41.2024V41.2024Z" fill="white"/>
<path d="M314.868 248.707C329.748 248.707 341.811 236.644 341.811 221.764C341.811 206.884 329.748 194.821 314.868 194.821C299.988 194.821 287.925 206.884 287.925 221.764C287.925 236.644 299.988 248.707 314.868 248.707Z" fill="white"/>
<path d="M507.021 194.821C492.142 194.821 480.077 206.885 480.077 221.765C480.077 236.644 492.142 248.708 507.021 248.708C521.907 248.708 533.964 236.644 533.964 221.765C533.964 206.885 521.907 194.821 507.021 194.821V194.821Z" fill="white"/>
<path d="M458.699 191.604H350.392L361.114 213.052H470.495L458.699 191.604Z" fill="white"/>
<path d="M350.392 168.28V96.6982C350.392 83.0255 338.996 85.0365 338.996 85.0365C338.996 85.0365 311.248 85.0365 303.71 85.0365C296.178 85.0365 291.541 91.4722 291.541 91.4722C291.541 91.4722 269.101 130.359 260.305 145.227C258.777 147.812 256.96 152.716 256.96 156.923C256.96 167.426 256.96 189.726 256.96 206.081C256.96 228.2 277.468 221.766 277.468 221.766C277.468 220.836 277.468 217.087 277.468 204.071C277.468 182.355 302.804 184.367 302.804 184.367H337.388C352.265 184.365 350.392 168.28 350.392 168.28V168.28Z" fill="white"/>
</g>
<defs>
<clipPath id="clip0">
<path d="M0 0H580V580H0V0Z" fill="white"/>
</clipPath>
</defs>
</svg>
